X: 69
T: The Rambling Pitchfork
M: 6/8
L: 1/8
R: jig
K:Dmaj
"D"F2F AFF|dFF AFD|"G"G2G "A"ABc|"D"ded "A"cAG|
"D"FEF AFF|dFF AFD|"G"GFG BdB|"D"AFD D3:|
|:"D"d2e fed|"A"ecA "(D)"AFA|dcd "A"efg|"D"faf "A"gfe|
"D"d2e fed|"A"ecA "(D)"AFA|"G"GFG BAG|"D"AFD D3:|


